X: 150
T:Rudolph's Fancy
M:4/4
L:1/8
C:Santa Claus
S:The Lapland Sessions
Z:Chas Blacker
K:G
dedB GBdg|~e2d2 GABc|deBe dBdg|fAeA d2AB|cdcB Adfd|~e2d2 agfe|1 ~d3e
dAeA|~B3A GABc:||2 ~d3e dfaf|~g3a gfed|]~e3f gage|dedB dBAG|c2de dBcA|~B
3A
~G3B|A2AB ^cBcd|efgf e2fg|afge fde2|dBcB A2Bc|dedB GBdg|~e2d2  GABc|deBe
dBdg|fAeA d2AB|cdcB Adfd|~e2d2 agfe|~d3e dfaf|~g3a g4||
<end>
<start>
